X:4
T:Mountain Trail - Bluegrass Tune
C:Alex
M:4/4
L:1/8
K:G

|: G2G2A2B2 | c4B2A2 | G2G2A2B2 | c4z2 |
   d2d2e2f2 | g4f2e2 | d2d2e2f2 | g4z2 :|

|: G2G2A2B2 | c4B2A2 | G2G2A2B2 | c4z2 |
   d2d2e2d2 | c2B2A2G2 | F2F2G2F2 | E4z2 :|

|: c2c2d2e2 | f4e2d2 | c2c2d2e2 | f4z2 |
   g2g2f2e2 | d2c2B2A2 | G2G2A2B2 | c4z2 :|

